web/ui/src/components/theme/button/svgs/pause.svg

<svg height="16" viewBox="0 0 16 16" width="16" xmlns="http://www.w3.org/2000/svg"><g fill="none"><path d="m0 0h16v16h-16z" fill="#000" opacity="0"/><path d="m8 15c-3.85998438 0-7-3.1400156-7-7 0-3.85998437 3.14001562-7 7-7 3.8599844 0 7 3.14001563 7 7 0 3.8599844-3.1400156 7-7 7zm0-13c-3.3085 0-6 2.6915-6 6s2.6915 6 6 6 6-2.6915 6-6-2.6915-6-6-6zm1.5 4c.27614237 0 .5.22385763.5.5v3c0 .27614237-.22385763.5-.5.5s-.5-.22385763-.5-.5v-3c0-.27614237.22385763-.5.5-.5zm-3 0c.27614237 0 .5.22385763.5.5v3c0 .27614237-.22385763.5-.5.5s-.5-.22385763-.5-.5v-3c0-.27614237.22385763-.5.5-.5z" fill="#595959"/></g></svg>

<?xml version="1.0" encoding="UTF-8"?>
<svg width="16px" height="16px" viewBox="0 0 16 16" version="1.1" xmlns="http://www.w3.org/2000/svg" xmlns:xlink="http://www.w3.org/1999/xlink">
    <title>pause</title>
    <g id="页面-1" stroke="none" stroke-width="1" fill="none" fill-rule="evenodd">
        <g id="系统设计规范" transform="translate(-831.000000, -5253.000000)" fill-rule="nonzero">
            <g id="pause" transform="translate(831.000000, 5253.000000)">
                <rect id="矩形" fill="#000000" opacity="0" x="0" y="0" width="16" height="16"></rect>
                <path d="M8,15 C4.14001562,15 1,11.8599844 1,8 C1,4.14001563 4.14001562,1 8,1 C11.8599844,1 15,4.14001563 15,8 C15,11.8599844 11.8599844,15 8,15 Z M8,2 C4.6915,2 2,4.6915 2,8 C2,11.3085 4.6915,14 8,14 C11.3085,14 14,11.3085 14,8 C14,4.6915 11.3085,2 8,2 Z M9.5,6 C9.77614237,6 10,6.22385763 10,6.5 L10,9.5 C10,9.77614237 9.77614237,10 9.5,10 C9.22385763,10 9,9.77614237 9,9.5 L9,6.5 C9,6.22385763 9.22385763,6 9.5,6 Z M6.5,6 C6.77614237,6 7,6.22385763 7,6.5 L7,9.5 C7,9.77614237 6.77614237,10 6.5,10 C6.22385763,10 6,9.77614237 6,9.5 L6,6.5 C6,6.22385763 6.22385763,6 6.5,6 Z" id="形状" fill="#595959"></path>
            </g>
        </g>
    </g>
</svg>
